X: 159
T:Foliada da Xunqueira
M:3/4
L:1/8
Q:200
C:E. Otero
R:Foliada
K:C
CE CE |: G2 CEG2 |C2 CE CE |G2 FE F2- | F2 DF DF |
A2 GF G2| FE DE FA | GF ED G2| C2 CE CE | G2 CE G2|
C2 CE CE| G2 FE F2- |F2 DFDF |A2 GF G2| FE DE FA |
GF ED C2- |C6- |1 C2 CECE :|2 C2 G3F |E2DEF2|
F2GF ED | F2ED C2 | C6- |C2 D2 E2 | F2D2 G2-|
G2 F4 |EF ED C2- |C2 E2 F2 |: G4 E2 | c4G2 |
AB AG F2- | F2 D2 E2 | F4 D2 |B4 A2 | GA GF E2- |
E2E2F2 | G2E2 c2- |C2 G4| AB AG F2- |F2 D2 E2 |
F2D2 B2- | B2 A4 |GA GFE2- |1 E2E2 F2 :|2 E6- | E2 ||

